img/svg/hoder/informasjon--fylt.svg

<?xml version="1.0" encoding="UTF-8" standalone="no"?>
<svg width="32px" height="32px" viewBox="0 0 32 32" version="1.1" xmlns="http://www.w3.org/2000/svg" xmlns:xlink="http://www.w3.org/1999/xlink">
    <!-- Generator: Sketch 42 (36781) - http://www.bohemiancoding.com/sketch -->
    <title>infomation-circle</title>
    <desc>Created with Sketch.</desc>
    <defs></defs>
    <g id="Ferdige-AG" stroke="none" stroke-width="1" fill="none" fill-rule="evenodd">
        <g id="infomation-circle" fill-rule="nonzero" fill="#B7B1A9">
            <g id="Filled_Version">
                <path d="M16,0 C7.17634783,0 0,7.17634783 0,16 C0,24.8236522 7.17634783,32 16,32 C24.8222609,32 32,24.8236522 32,16 C32,7.17634783 24.8222609,0 16,0 Z M15.3043478,6.95652174 C16.0709565,6.95652174 16.6956522,7.57982609 16.6956522,8.34782609 C16.6956522,9.11721739 16.0709565,9.73913043 15.3043478,9.73913043 C14.5349565,9.73913043 13.9130435,9.11721739 13.9130435,8.34782609 C13.9130435,7.57982609 14.5349565,6.95652174 15.3043478,6.95652174 Z M20.173913,26.4347826 L11.826087,26.4347826 C11.442087,26.4347826 11.1304348,26.1231304 11.1304348,25.7391304 C11.1304348,25.3551304 11.442087,25.0434783 11.826087,25.0434783 L15.3043478,25.0434783 L15.3043478,13.9130435 L13.2173913,13.9130435 C12.8333913,13.9130435 12.5217391,13.6013913 12.5217391,13.2173913 C12.5217391,12.8333913 12.8333913,12.5217391 13.2173913,12.5217391 L16,12.5217391 C16.3826087,12.5217391 16.6956522,12.8333913 16.6956522,13.2173913 L16.6956522,25.0434783 L20.173913,25.0434783 C20.5565217,25.0434783 20.8695652,25.3551304 20.8695652,25.7391304 C20.8695652,26.1231304 20.5565217,26.4347826 20.173913,26.4347826 Z" id="Shape"></path>
            </g>
        </g>
    </g>
</svg>

<svg width="32" height="32" viewBox="0 0 32 32" xmlns="http://www.w3.org/2000/svg"><path d="M16 0C7.176 0 0 7.176 0 16s7.176 16 16 16c8.822 0 16-7.176 16-16S24.822 0 16 0zm-.696 6.957a1.392 1.392 0 1 1-.001 2.782 1.392 1.392 0 0 1 .001-2.782zm4.87 19.478h-8.348a.696.696 0 0 1 0-1.392h3.478v-11.13h-2.087a.696.696 0 0 1 0-1.391H16c.383 0 .696.311.696.695v11.826h3.478a.697.697 0 0 1 0 1.392z" fill-rule="nonzero" fill="#B7B1A9"/></svg>
